X:164
T:Connemara Stockings
B:Terry "Cuz" Teahan "Sliabh Luachra on Parade" 1980
Z:Patrick Cavanagh
M:4/4
L:1/8
R:Reel
K:G
| g2fg edBA | GABG AGFD | GABd eaag | fdef g2ef :| 
| gbef gbeg | fadf fadf | gbef gbeg | afdf e2ef | 
g(bb)(b b2)ag | f(aa)(a a2)gf | gbag fagf | gfed ed B/c/d || 

